images/team/email.svg

<svg height="32" viewBox="0 0 32 32" width="32" xmlns="http://www.w3.org/2000/svg"><g fill="none" fill-rule="evenodd"><path d="m2 0h28c1.1045695 0 2 .8954305 2 2v28c0 1.1045695-.8954305 2-2 2h-28c-1.1045695 0-2-.8954305-2-2v-28c0-1.1045695.8954305-2 2-2z" fill="#6b7d99"/><g transform="translate(8.727273 8.727273)"><path d="m0 0h14.545455v14.545455h-14.545455z"/><g stroke="#fff" stroke-width="1.090909"><path d="m2.18181818 2.72719335c-.50207704 0-.90909091.40701386-.90909091.90909091v7.27280664c0 .5020771.40701387.9090909.90909084.9090909l10.18181829-.0000012c.5020767 0 .9090904-.4070134.9090909-.9090903l.0000087-7.27280729c0-.50207705-.4070138-.90909091-.9090908-.90909091l-10.18182695.00000125z"/><path d="m10.4099698 2.04633345-1.02851894 5.15329923-5.15329922 1.02851896" transform="matrix(.70710678 .70710678 -.70710678 .70710678 5.776283 -3.670694)"/></g></g></g></svg>

<?xml version="1.0" encoding="UTF-8"?>
<svg width="32px" height="32px" viewBox="0 0 32 32" version="1.1" xmlns="http://www.w3.org/2000/svg" xmlns:xlink="http://www.w3.org/1999/xlink">
    <!-- Generator: Sketch 49.3 (51167) - http://www.bohemiancoding.com/sketch -->
    <title>email</title>
    <desc>Created with Sketch.</desc>
    <defs></defs>
    <g id="👨‍👨‍👧‍👧-team" stroke="none" stroke-width="1" fill="none" fill-rule="evenodd">
        <g id="team" transform="translate(-696.000000, -1303.000000)">
            <g transform="translate(160.000000, 923.000000)" id="member">
                <g transform="translate(384.000000, 0.000000)">
                    <g id="info" transform="translate(8.000000, 304.000000)">
                        <g transform="translate(24.000000, 15.000000)" id="email">
                            <g transform="translate(120.000000, 61.000000)">
                                <path d="M2,0 L30,0 C31.1045695,-2.02906125e-16 32,0.8954305 32,2 L32,30 C32,31.1045695 31.1045695,32 30,32 L2,32 C0.8954305,32 1.3527075e-16,31.1045695 0,30 L0,2 C-1.3527075e-16,0.8954305 0.8954305,2.02906125e-16 2,0 Z" id="input-bg" fill="#6B7D99"></path>
                                <g id="20x20/mail--dark" transform="translate(8.727273, 8.727273)">
                                    <g id="20x20/customize--grey">
                                        <rect id="Rectangle" x="0" y="0" width="14.5454545" height="14.5454545"></rect>
                                    </g>
                                    <path d="M2.18181818,2.72719335 C1.67974114,2.72719335 1.27272727,3.13420721 1.27272727,3.63628426 L1.27272727,10.9090909 C1.27272727,11.411168 1.67974114,11.8181818 2.18181811,11.8181818 L12.3636364,11.8181806 C12.8657131,11.8181806 13.2727268,11.4111672 13.2727273,10.9090903 L13.272736,3.63628301 C13.272736,3.13420596 12.8657222,2.7271921 12.3636452,2.7271921 L2.18181825,2.72719335 Z" id="Rectangle-10" stroke="#FFFFFF" stroke-width="1.09090909"></path>
                                    <polyline id="Rectangle-14" stroke="#FFFFFF" stroke-width="1.09090909" transform="translate(7.319061, 5.137243) rotate(-315.000000) translate(-7.319061, -5.137243) " points="10.4099698 2.04633345 9.38145086 7.19963268 4.22815164 8.22815164"></polyline>
                                </g>
                            </g>
                        </g>
                    </g>
                </g>
            </g>
        </g>
    </g>
</svg>
